Origami/22x22/apps/protonmail-desktop.svg

<svg width="22" height="22" version="1" xmlns="http://www.w3.org/2000/svg">
 <path d="M 21,11 A 10,10 0 0 1 11,21 10,10 0 0 1 1,11 10,10 0 0 1 11,1 10,10 0 0 1 21,11 Z" style="fill:#4f4f4f"/>
 <path d="m11 1a10 10 0 0 0 -10 10 10 10 0 0 0 0.01075 0.291 10 10 0 0 1 9.989 -9.791 10 10 0 0 1 9.989 9.709 10 10 0 0 0 0.011 -0.209 10 10 0 0 0 -10 -10z" style="fill:#ffffff;opacity:.1"/>
 <path d="M 20.9895,11.209 A 10,10 0 0 1 11,21 10,10 0 0 1 1.011,11.291 10,10 0 0 0 1,11.5 a 10,10 0 0 0 10,10 10,10 0 0 0 10,-10 10,10 0 0 0 -0.0105,-0.291 z" style="opacity:.2"/>
 <path d="m11 5.5002895c-0.250932 0-0.502311 0.012927-0.662109 0.039063-1.9288025 0.31535-3.0686481 1.3831926-3.2968754 3.087891-0.025213 0.188347-0.03306 0.5213795-0.037109 1.8027355l-0.0039066 0.52307 0.056641 0.09961c0.1381439 0.250723 0.3282103 0.427355 1.2363282 1.142578 1.5182258 1.195741 2.1430228 1.632732 2.5273428 1.765626 0.06066 0.02097 0.143836 0.03845 0.185547 0.03906 0.255066 0.0039 0.999731-0.471735 2.128907-1.357422 1.408162-1.104521 1.66941-1.333603 1.80664-1.583984l0.058594-0.105468v-0.255492c0-1.637283-0.01068-1.9284115-0.07813-2.2792985-0.1203-0.6257513-0.338544-1.120169-0.6875-1.5507815-0.560106-0.691176-1.435508-1.1422715-2.572261-1.328125-0.159803-0.026125-0.411178-0.0390625-0.662109-0.0390625zm0 2c0.907453 0 1.695395 0.707714 1.953125 1.5742205 0.04538 0.152555 0.046875 0.158769 0.046875 0.779297 0 0.344054-0.0052 0.631734-0.01172 0.638672-0.0066 0.0069-0.897374 0.01046-1.988281 0.0078-1.090907 0.0026-1.981748-9.13e-4 -1.988281-0.0078-0.006499-0.0069-0.011718-0.294618-0.011718-0.638672 0-0.620528 0.0015-0.626742 0.04687-0.779297 0.257733-0.8665065 1.045677-1.5742205 1.95313-1.5742205zm-3.9980469 4.4996345s-0.00511 0.439257 0 2.080078l0.00781 2.015625 0.060547 0.126953c0.046208 0.09667 0.083027 0.141666 0.1582031 0.191406l0.097656 0.06445 1.59375 0.01172c0.8765258 0.0059 2.5175048 0.01034 3.6464838 0.0098l2.052735-2e-3 0.09961-0.04687c0.12755-0.06164 0.165482-0.09985 0.224609-0.22461l0.04687-0.101562 2e-3 -1.837891 0.0078-2.287099h-0.02539l-0.0332 0.06055c-0.137231 0.250381-0.398478 0.479464-1.80664 1.583984-1.129174 0.885688-1.873843 1.359369-2.128907 1.355469-0.04171-6e-4 -0.124893-0.01808-0.185547-0.03906-0.384295-0.132924-1.009148-0.569889-2.5273742-1.765631-0.9081178-0.715222-1.0981843-0.891855-1.2363282-1.142578l-0.03125-0.05273z" style="opacity:.2"/>
 <path d="m11 5.0003665c-0.250932 0-0.502311 0.012927-0.662109 0.039063-1.9288025 0.31535-3.0686481 1.3831926-3.2968754 3.0878905-0.025213 0.188347-0.03306 0.521379-0.037109 1.802735l-0.0039066 0.52307 0.056641 0.09961c0.1381439 0.250723 0.3282103 0.427355 1.2363282 1.142578 1.5182258 1.195741 2.1430228 1.632732 2.5273428 1.765626 0.06066 0.02097 0.143836 0.03845 0.185547 0.03906 0.255066 0.0039 0.999731-0.471735 2.128907-1.357422 1.408162-1.104521 1.66941-1.333603 1.80664-1.583984l0.058594-0.105468v-0.255492c0-1.6372835-0.010675-1.9284115-0.078125-2.2792977-0.1203-0.6257511-0.338544-1.1201688-0.6875-1.5507813-0.560111-0.691176-1.435513-1.1422715-2.572266-1.328125-0.159803-0.026125-0.411178-0.0390625-0.662109-0.0390625zm0 2c0.907453 0 1.695395 0.7077139 1.953125 1.574219 0.04538 0.152555 0.046875 0.158769 0.046875 0.7792975 0 0.344054-0.0052 0.631734-0.01172 0.638672-0.0066 0.0069-0.897374 0.01046-1.988281 0.0078-1.090907 0.0026-1.981748-9.13e-4 -1.988281-0.0078-0.006499-0.0069-0.011718-0.294618-0.011718-0.638672 0-0.6205285 0.0015-0.6267425 0.04687-0.7792975 0.257733-0.8665052 1.045677-1.574219 1.95313-1.574219zm-3.9980469 4.4996335s-0.00511 0.439257 0 2.080078l0.00781 2.015625 0.060547 0.126953c0.046208 0.09667 0.083027 0.141666 0.1582031 0.191406l0.097656 0.06445 1.59375 0.01172c0.8765258 0.0059 2.5175048 0.01034 3.6464838 0.0098l2.052735-2e-3 0.09961-0.04687c0.12755-0.06164 0.165482-0.09985 0.224609-0.22461l0.04687-0.101562 2e-3 -1.837891 0.007773-2.287099h-0.02539l-0.0332 0.06055c-0.137231 0.250381-0.398478 0.479464-1.80664 1.583984-1.129174 0.885688-1.873843 1.359369-2.128907 1.355469-0.04171-6e-4 -0.124893-0.01808-0.185547-0.03906-0.384268-0.132924-1.009121-0.569889-2.5273472-1.765631-0.9081178-0.715222-1.0981843-0.891855-1.2363282-1.142578l-0.03125-0.052734z" style="fill:#ffffff"/>
</svg>

<svg xmlns="http://www.w3.org/2000/svg" width="22" height="22" version="1">
 <path style="fill:#4f4f4f" d="M 21,11 A 10,10 0 0 1 11,21 10,10 0 0 1 1,11 10,10 0 0 1 11,1 10,10 0 0 1 21,11 Z"/>
 <path style="opacity:0.1;fill:#ffffff" d="m 11,1 a 10,10 0 0 0 -10,10 10,10 0 0 0 0.01075,0.291 10,10 0 0 1 9.989,-9.791 10,10 0 0 1 9.989,9.709 10,10 0 0 0 0.011,-0.209 10,10 0 0 0 -10,-10 z"/>
 <path style="opacity:0.2" d="M 20.9895,11.209 A 10,10 0 0 1 11,21 10,10 0 0 1 1.011,11.291 10,10 0 0 0 1,11.5 a 10,10 0 0 0 10,10 10,10 0 0 0 10,-10 10,10 0 0 0 -0.0105,-0.291 z"/>
 <path d="m 11,5.5002895 c -0.250932,0 -0.502311,0.012927 -0.662109,0.039063 -1.9288025,0.31535 -3.0686481,1.3831926 -3.2968754,3.087891 -0.025213,0.188347 -0.03306,0.5213795 -0.037109,1.8027355 L 7,10.953049 l 0.056641,0.09961 c 0.1381439,0.250723 0.3282103,0.427355 1.2363282,1.142578 1.5182258,1.195741 2.1430228,1.632732 2.5273428,1.765626 0.06066,0.02097 0.143836,0.03845 0.185547,0.03906 0.255066,0.0039 0.999731,-0.471735 2.128907,-1.357422 1.408162,-1.104521 1.66941,-1.333603 1.80664,-1.583984 L 15,10.953049 15,10.697557 C 15,9.060274 14.98932,8.7691455 14.92187,8.4182585 14.80157,7.7925072 14.583326,7.2980895 14.23437,6.867477 13.674264,6.176301 12.798862,5.7252055 11.662109,5.539352 11.502306,5.513227 11.250931,5.5002895 11,5.5002895 Z m 0,2 c 0.907453,0 1.695395,0.707714 1.953125,1.5742205 C 12.998505,9.227065 13,9.233279 13,9.853807 c 0,0.344054 -0.0052,0.631734 -0.01172,0.638672 -0.0066,0.0069 -0.897374,0.01046 -1.988281,0.0078 -1.090907,0.0026 -1.981748,-9.13e-4 -1.988281,-0.0078 C 9.005219,10.485579 9,10.197861 9,9.853807 9,9.233279 9.0015,9.227065 9.04687,9.07451 9.304603,8.2080035 10.092547,7.5002895 11,7.5002895 Z M 7.0019531,11.999924 c 0,0 -0.00511,0.439257 0,2.080078 l 0.00781,2.015625 0.060547,0.126953 c 0.046208,0.09667 0.083027,0.141666 0.1582031,0.191406 l 0.097656,0.06445 1.59375,0.01172 c 0.8765258,0.0059 2.5175048,0.01034 3.6464838,0.0098 l 2.052735,-0.002 0.09961,-0.04687 c 0.12755,-0.06164 0.165482,-0.09985 0.224609,-0.22461 l 0.04687,-0.101562 0.002,-1.837891 0.0078,-2.287099 -0.02539,0 -0.0332,0.06055 c -0.137231,0.250381 -0.398478,0.479464 -1.80664,1.583984 -1.129174,0.885688 -1.873843,1.359369 -2.128907,1.355469 -0.04171,-6e-4 -0.124893,-0.01808 -0.185547,-0.03906 C 10.436048,14.827943 9.811195,14.390978 8.2929688,13.195236 7.384851,12.480014 7.1947845,12.303381 7.0566406,12.052658 l -0.03125,-0.05273 z" style="opacity:0.2"/>
 <path style="fill:#ffffff" d="m 11,5.0003665 c -0.250932,0 -0.502311,0.012927 -0.662109,0.039063 C 8.4090885,5.3547795 7.2692429,6.4226221 7.0410156,8.12732 7.0158026,8.315667 7.0079556,8.648699 7.0039066,9.930055 L 7,10.453125 l 0.056641,0.09961 c 0.1381439,0.250723 0.3282103,0.427355 1.2363282,1.142578 1.5182258,1.195741 2.1430228,1.632732 2.5273428,1.765626 0.06066,0.02097 0.143836,0.03845 0.185547,0.03906 0.255066,0.0039 0.999731,-0.471735 2.128907,-1.357422 1.408162,-1.104521 1.66941,-1.333603 1.80664,-1.583984 L 15,10.453125 15,10.197633 C 15,8.5603495 14.989325,8.2692215 14.921875,7.9183353 14.801575,7.2925842 14.583331,6.7981665 14.234375,6.367554 13.674264,5.676378 12.798862,5.2252825 11.662109,5.039429 11.502306,5.013304 11.250931,5.0003665 11,5.0003665 Z m 0,2 c 0.907453,0 1.695395,0.7077139 1.953125,1.574219 C 12.998505,8.7271405 13,8.7333545 13,9.353883 c 0,0.344054 -0.0052,0.631734 -0.01172,0.638672 -0.0066,0.0069 -0.897374,0.01046 -1.988281,0.0078 -1.090907,0.0026 -1.981748,-9.13e-4 -1.988281,-0.0078 C 9.005219,9.985655 9,9.697937 9,9.353883 9,8.7333545 9.0015,8.7271405 9.04687,8.5745855 9.304603,7.7080803 10.092547,7.0003665 11,7.0003665 Z M 7.0019531,11.5 c 0,0 -0.00511,0.439257 0,2.080078 l 0.00781,2.015625 0.060547,0.126953 c 0.046208,0.09667 0.083027,0.141666 0.1582031,0.191406 l 0.097656,0.06445 1.59375,0.01172 c 0.8765258,0.0059 2.5175048,0.01034 3.6464838,0.0098 l 2.052735,-0.002 0.09961,-0.04687 c 0.12755,-0.06164 0.165482,-0.09985 0.224609,-0.22461 l 0.04687,-0.101562 0.002,-1.837891 L 15,11.5 l -0.02539,0 -0.0332,0.06055 c -0.137231,0.250381 -0.398478,0.479464 -1.80664,1.583984 -1.129174,0.885688 -1.873843,1.359369 -2.128907,1.355469 -0.04171,-6e-4 -0.124893,-0.01808 -0.185547,-0.03906 C 10.436048,14.328019 9.811195,13.891054 8.2929688,12.695312 7.384851,11.98009 7.1947845,11.803457 7.0566406,11.552734 L 7.0253906,11.5 Z"/>
</svg>
